storage/app/icons/phosphoricons/bold/corners-out-bold.svg

<svg xmlns="http://www.w3.org/2000/svg" fill="currentColor" viewBox="0 0 256 256"><path d="M220 48v40a12 12 0 0 1-24 0V60h-28a12 12 0 0 1 0-24h40a12 12 0 0 1 12 12M88 196H60v-28a12 12 0 0 0-24 0v40a12 12 0 0 0 12 12h40a12 12 0 0 0 0-24m120-40a12 12 0 0 0-12 12v28h-28a12 12 0 0 0 0 24h40a12 12 0 0 0 12-12v-40a12 12 0 0 0-12-12M88 36H48a12 12 0 0 0-12 12v40a12 12 0 0 0 24 0V60h28a12 12 0 0 0 0-24"/></svg>

<svg xmlns="http://www.w3.org/2000/svg" viewBox="0 0 256 256" fill="currentColor"><path d="M220,48V88a12,12,0,0,1-24,0V60H168a12,12,0,0,1,0-24h40A12,12,0,0,1,220,48ZM88,196H60V168a12,12,0,0,0-24,0v40a12,12,0,0,0,12,12H88a12,12,0,0,0,0-24Zm120-40a12,12,0,0,0-12,12v28H168a12,12,0,0,0,0,24h40a12,12,0,0,0,12-12V168A12,12,0,0,0,208,156ZM88,36H48A12,12,0,0,0,36,48V88a12,12,0,0,0,24,0V60H88a12,12,0,0,0,0-24Z"/></svg>
